_includes/img/chevron-right.svg

<svg height="30" viewBox="0 0 17 30" width="17" xmlns="http://www.w3.org/2000/svg"><path d="m6.1875 31.0625c-.52774242 0-1.0557425-.201416-1.45793036-.604248-.80566406-.8056641-.80566406-2.1108399 0-2.916504l10.91964926-10.916748-10.91964926-10.91642547c-.80566406-.80566406-.80566406-2.11083984 0-2.9165039.80566407-.80566407 2.11083985-.80566407 2.91650391 0l12.37499995 12.37499997c.8056641.8056641.8056641 2.1108399 0 2.9165039l-12.37499995 12.375c-.40154368.4041204-.93006009.6039255-1.45857552.6039255z" fill="#94ce40" transform="translate(-4 -1.5)"/></svg>

<?xml version="1.0" encoding="UTF-8"?>
<svg width="17px" height="30px" viewBox="0 0 17 30" version="1.1" xmlns="http://www.w3.org/2000/svg" xmlns:xlink="http://www.w3.org/1999/xlink">
    <title>Chevron-right Copy</title>
    <g id="Scaffold-CSS-—-Splash" stroke="none" stroke-width="1" fill="none" fill-rule="evenodd">
        <g id="Chevron-right-Copy" transform="translate(-4, -1.5)" fill="#94CE40" fill-rule="nonzero">
            <path d="M6.1875,31.0625 C5.65975758,31.0625 5.1317575,30.861084 4.72956964,30.458252 C3.92390558,29.6525879 3.92390558,28.3474121 4.72956964,27.541748 L15.6492189,16.625 L4.72956964,5.70857453 C3.92390558,4.90291047 3.92390558,3.59773469 4.72956964,2.79207063 C5.53523371,1.98640656 6.84040949,1.98640656 7.64607355,2.79207063 L20.0210735,15.1670706 C20.8267376,15.9727347 20.8267376,17.2779105 20.0210735,18.0835745 L7.64607355,30.4585745 C7.24452987,30.8626949 6.71601346,31.0625 6.18749803,31.0625 L6.1875,31.0625 Z" id="Path"></path>
        </g>
    </g>
</svg>
